!!!SOCIAL_FUNCTION:	songs concerning the sacred stones
!!!PDT:	1918

Specific Region: Dakotas, Minnesota, Montana, Nebraska
!!!REG: Dakotas and Montana
!!!LING_GROUP: Siouan
!!!LANG: Tone
!!!OTL@ENG: From Everywhere They Come
!!!ONM: No. 66
**kern
*Imale
*clefF4
*k[b-e-a-d-g-]
*M2/4
*>[A,B,B]
*>norep[A,B]
*>A
*MM76
16e-
16e-
=1
4e-
12e-
12c
12c
=2
(8.e-
16c)
4c
=3
8.e-
16c
4c
=4
(8.e-
16c)
(4c
=5||
*M3/4
2c)
8.c
*>B
=!|:
16f
=6
(12f
12e-)
12e-
8.e-
16e-
(12e-
12d-
12e-)
=7
[2B-
8B-]
16B-
16B-
=8||
*M2/4
(12d-
12B-)
12B-
4B-
=9||
*M3/4
8.B-
16B-
(8.d-
16B-)
4B-
=10||
*M2/4
8.d-
16B-
(12B-
12A-
12B-)
=11
8.F
16F
8.G-
16F
=12||
*M3/4
[2F
8F]
16F
16F
=13||
*M2/4
(16A-
8.F)
12F
12E-
12E-
=14||
*M3/4
4F
(16E-
8.D-)
4BB-
=15
8.D-
16BB-
2BB-
=16
8.D-
16BB-
2BB-
=17||
*M2/4
4..BB-
==:|!
*-
!!!CNT: Native American -- Sioux
!!!MRD: 1911/07//-1914///
!!!OCL: Frances Densmore
!!!YOR1: Teton Sioux Music, Bulletin 61,
!!!YOR2: Bureau of American Ethnology, Smithsonian Institution
!!!PPR: Government Printing Office
!!!PPP: Washington, D.C.
!!!PDT: 1918///
!!!ENC: Craig Stuart Sapp
!!!END: 2002/03/25/
!!!EEV: 2002/03/31/
!!!AGN: Song of Personal Dreams/Song Concerning the Sacred Stones
!!!MPN@@SIO: Waking'yan-wata'kpe
!!!MPN@ENG: Charging Thunder
!!!TXO: Teton Sioux
!!!MLC: Standing Rock Reservation, South Dakota, United States of America
!!!ARL: 45.9/-100.7#
!!!catalog: Catalogue No. 565
!!!PPG: 222
!!!EFL: 66/245
!!!VTS: 3883189828
